icons/home-minimal.svg

<svg width="24" height="24" viewBox="0 0 24 24" fill="none" xmlns="http://www.w3.org/2000/svg">
<path fill-rule="evenodd" clip-rule="evenodd" d="M17.5963 3.25C17.5963 2.83579 17.2605 2.5 16.8463 2.5C16.4321 2.5 16.0963 2.83579 16.0963 3.25V5.4188L14.2448 3.78946C12.9606 2.63674 11.0321 2.63675 9.74796 3.7895L4.73298 8.20268L4.71607 8.21959C3.90582 9.02984 3.29639 10.2118 3.29639 11.4499V18.5499C3.29639 20.1642 4.6322 21.4999 6.2464 21.4999H17.7464C19.4116 21.4999 20.8167 20.2022 20.6964 18.5211V11.4499C20.6964 10.254 20.2178 9.04131 19.2412 8.1863L19.2403 8.18549L17.5963 6.7388V3.25ZM10.7481 4.9074C11.4629 4.2641 12.5299 4.2641 13.2447 4.9074L18.2509 9.31296L18.2525 9.31435C18.8753 9.8593 19.1964 10.6462 19.1964 11.4499V18.5811L19.199 18.6122C19.2576 19.3149 18.6702 19.9999 17.7464 19.9999H6.2464C5.4606 19.9999 4.79639 19.3357 4.79639 18.5499V11.4499C4.79639 10.695 5.17991 9.88487 5.7607 9.29638L10.7419 4.913L10.7481 4.9074Z" fill="black"/>
</svg>

<svg xmlns="http://www.w3.org/2000/svg" fill="none" viewBox="0 0 24 24">
  <path fill="#000" fill-rule="evenodd" d="M17.596 3.25a.75.75 0 0 0-1.5 0v2.169l-1.851-1.63a3.356 3.356 0 0 0-4.497 0L4.733 8.204l-.017.017c-.81.81-1.42 1.992-1.42 3.23v7.1a2.97 2.97 0 0 0 2.95 2.95h11.5c1.666 0 3.07-1.298 2.95-2.979V11.45c0-1.196-.478-2.409-1.455-3.264l-1.645-1.447V3.25Zm-6.848 1.657a1.856 1.856 0 0 1 2.497 0l5.006 4.406.002.001c.622.545.943 1.332.943 2.136v7.131l.003.031c.059.703-.529 1.388-1.453 1.388h-11.5a1.47 1.47 0 0 1-1.45-1.45v-7.1c0-.755.384-1.565.965-2.154l4.98-4.383.007-.006Z" clip-rule="evenodd"/>
</svg>
